X: 22237
T: La Galerie Pourrite
R: reel
M: 4/4
K: Bminor
B3G|:"Bm"FGAG F2B,B,|"A"FGAG "D"F2BG|"Bm"FGAG "F#m"Fddd|"G"BcBG "A"F2BG|
"Bm"FGAG F2B,B,|"A"FGAG "D"F2BG|"G"FGAG "A"f4|1 "D"cdcd "Bm"B2BG:|2 "D"cdcd "Bm"B4||
|:"D"FGFE "Bm"DEDC|"G"B,CB,G, "F#m"F,3A,|"Bm"B,A,B,C "G"DCDE|"D"F2DF "A"E2FG|
"D"AGFE "Bm"DEDC|"G"B,CB,G, "F#m"F,3A,|"G"B,A,B,C "A"DEFE|1 "D"D2CD "Bm"B,2E2:|2 "D"D2CD "Bm"B3G||

